X:1
T:Out of the Depths I Cry
T:Text: Psalm 130; vers. Psalter, 1912, alt. Tune: Charles H. Purday, 1860
T:10 4 10 4 10 10 SANDON www.hymnary.org/text/out_of_the_depths_i_cry_to_you_on_high
T:Out of the Depths I Cry
T:This hymn is in the public domain. You may freely use this score for personal and congregational worship. If you reproduce the score, please credit Hymnary.org as the source. 
T:This hymn is in the public domain. You may freely use this score for personal and congregational worship. If you reproduce the score, please credit Hymnary.org as the source. 
Z:This hymn is in the public domain. You may freely use this score for personal and congregational worship. If you reproduce the score, please credit Hymnary.org as the source.
%%score ( 1 2 ) ( 3 4 )
L:1/8
M:2/2
K:F
V:1 treble nm="SOPRANO ALTO" snm="S. A."
V:2 treble 
V:3 bass nm="TENOR BASS" snm="T. B."
V:4 bass 
V:1
"^1""^2""^3" A4 A2 A2 | B6 A2 | A2 G2 F2 G2 | A6 F2 | G4 E4 | F8 | A4 A2 A2 | B6 A2 | A2 G2 F2 G2 | %9
w: Out of the|depths I|cry to you on|high; Lord,|hear my|call.|Bend down your|ear and|lis- ten to my|
w: I wait for|God, I|trust his ho- ly|word; he|hears my|sighs.|My soul still|waits and|looks un- to the|
w: Hope in the|Lord: un-|fail- ing is his|love; in|him con-|fide.|Mer- cy and|full re-|demp- tion from a-|
 A6 | F2 | G4 E4 | F8 | G4 G2 A2 | B4 G4 | c2 B2 A2 G2 | A6 |1 c2 | d4 c4 | B6 A2 | c2 B2 A2 G2 | %21
w: sigh,|for-|giv- ing|all.|If you should|mark our|sins, who then could|stand?|But|grace and|mer- cy|dwell at your right|
w: Lord;|my|prayers a-|rise.|I look for|him to|drive a- way my|night—|yes,|more than|those who|watch for morn- ing|
w: bove|he|does pro-|vide.|From sin and|e- vil,|might- y though they|seem,|his|arm al-|might- y|will his saints re-|
 F8 |] %22
w: hand.|
w: light.|
w: deem.|
V:2
 F4 F2 F2 | F6 F2 | E2 E2 F2 E2 | F6 A,2 | D4 C4 | C8 | F4 F2 F2 | F6 F2 | E2 E2 F2 E2 | F6 | A,2 | %11
 D4 C4 | C8 | E4 E2 F2 | E4 E4 | F2 E2 F2 E2 | F6 |1 F2 | F4 F4 | E6 F2 | G2 G2 F2 E2 | F8 |] %22
V:3
 C4 C2 C2 | D6 C2 | B,2 B,2 A,2 G,2 | F,6 F,2 | B,4 B,4 | A,8 | C4 C2 C2 | D6 C2 | %8
 B,2 B,2 A,2 G,2 | F,6 | F,2 | B,4 B,4 | A,8 | C4 B,2 A,2 | G,4 C4 | C2 C2 C2 C2 | C6 |1 C2 | %18
 B,4 C4 | C6 C2 | D2 D2 C2 B,2 | A,8 |] %22
V:4
 F,4 F,2 F,2 | F,6 F,2 | C,2 C,2 C,2 C,2 | F,6 D,2 | B,,4 C,4 | F,8 | F,4 F,2 F,2 | F,6 F,2 | %8
 C,2 C,2 C,2 C,2 | F,6 | D,2 | B,,4 C,4 | F,8 | C,4 C,2 C,2 | C,4 C,4 | A,2 G,2 F,2 C,2 | F,6 |1 %17
 A,2 | B,4 A,4 | G,6 F,2 | B,,2 B,,2 C,2 C,2 | F,8 |] %22

